media/bitcoin-svgrepo-com.svg

<svg width="24px" height="24px" viewBox="0 0 24 24" xmlns="http://www.w3.org/2000/svg">
  <path fill-rule="evenodd" d="M13,4.06437853 C15.4137328,4.38772165 17,5.92171577 17,8.5 C17,9.80666218 16.5925809,10.8451074 15.8765128,11.5936812 C17.2001695,12.3022124 18,13.6304361 18,15.5 C18,18.4022916 16.0724776,20 13.25,20 L13,20 L13,22 L11,22 L11,20 L9,20 L9,22 L7,22 L7,20 L5,20 L5,18 L7,18 L7,6 L5,6 L5,4 L7,4 L7,2 L9,2 L9,4 L11,4 L11,2 L13,2 L13,4.06437853 Z M12,6 L9,6 L9,11 L12,11 C13.9561749,11 15,10.1888576 15,8.5 C15,6.81114244 13.9561749,6 12,6 Z M9,13 L9,18 L13.25,18 C15.0421608,18 16,17.2060545 16,15.5 C16,13.7939455 15.0421608,13 13.25,13 L9,13 Z"/>
</svg>

<svg width="24" height="24" xmlns="http://www.w3.org/2000/svg"><path fill-rule="evenodd" d="M13 4.064c2.414.324 4 1.858 4 4.436 0 1.307-.407 2.345-1.123 3.094C17.2 12.302 18 13.63 18 15.5c0 2.902-1.928 4.5-4.75 4.5H13v2h-2v-2H9v2H7v-2H5v-2h2V6H5V4h2V2h2v2h2V2h2v2.064ZM12 6H9v5h3c1.956 0 3-.811 3-2.5S13.956 6 12 6Zm-3 7v5h4.25c1.792 0 2.75-.794 2.75-2.5s-.958-2.5-2.75-2.5H9Z"/></svg>
